svgs/regular/stamp.svg

<svg xmlns="http://www.w3.org/2000/svg" viewBox="0 0 512 512"><!--! Font Awesome Pro 6.3.0 by @fontawesome - https://fontawesome.com License - https://fontawesome.com/license (Commercial License) Copyright 2023 Fonticons, Inc. --><path d="M299.3 116.7c3-6.2 4.7-13.2 4.7-20.7c0-26.5-21.5-48-48-48s-48 21.5-48 48c0 7.5 1.7 14.5 4.7 20.7l.3 .6c7 14.6 19 39.6 19 68.7c0 65.2-52.8 118-118 118H96c-26.5 0-48 21.5-48 48v8c0 4.4 3.6 8 8 8H456c4.4 0 8-3.6 8-8v-8c0-26.5-21.5-48-48-48H398c-65.2 0-118-52.8-118-118c0-29 12-54.1 19-68.6l0 0 .3-.6zm43.3 20.8C335.2 152.9 328 168.9 328 186c0 38.7 31.4 70 70 70h18c53 0 96 43 96 96v8c0 30.9-25.1 56-56 56H56c-30.9 0-56-25.1-56-56v-8c0-53 43-96 96-96h18c38.7 0 70-31.3 70-70c0-17.1-7.2-33.1-14.6-48.5c-6-12.6-9.4-26.6-9.4-41.5c0-53 43-96 96-96s96 43 96 96c0 14.9-3.4 28.9-9.4 41.5zM32 480c0-17.7 14.3-32 32-32H448c17.7 0 32 14.3 32 32s-14.3 32-32 32H64c-17.7 0-32-14.3-32-32z"/></svg>

<svg xmlns="http://www.w3.org/2000/svg" viewBox="0 0 512 512"><!--! Font Awesome Pro 6.2.0 by @fontawesome - https://fontawesome.com License - https://fontawesome.com/license (Commercial License) Copyright 2022 Fonticons, Inc. --><path d="M342.6 137.5C335.2 152.9 328 168.9 328 185.1C328 224.7 359.4 256 398 256H416C469 256 512 298.1 512 352V360C512 390.9 486.9 416 456 416H56C25.07 416 0 390.9 0 360V352C0 298.1 42.98 256 96 256H113.1C152.7 256 184 224.7 184 185.1C184 168.9 176.8 152.9 169.4 137.5C163.4 124.9 160 110.9 160 96C160 42.98 202.1 0 256 0C309 0 352 42.98 352 96C352 110.9 348.6 124.9 342.6 137.5zM304 96C304 69.49 282.5 48 256 48C229.5 48 208 69.49 208 96C208 103.5 209.7 110.5 212.7 116.7L212.1 117.3C219.1 131.9 232 156.9 232 185.1C232 251.2 179.2 304 113.1 304H96C69.49 304 48 325.5 48 352V360C48 364.4 51.58 368 56 368H456C460.4 368 464 364.4 464 360V352C464 325.5 442.5 304 416 304H398C332.8 304 280 251.2 280 185.1C280 156.9 292 131.9 299 117.3L299.3 116.7C302.3 110.5 304 103.5 304 96zM32 480C32 462.3 46.33 448 64 448H448C465.7 448 480 462.3 480 480C480 497.7 465.7 512 448 512H64C46.33 512 32 497.7 32 480z"/></svg>
